localPackages/DesignSystem/Sources/DesignSystem/Resources/Assets.xcassets/IconSet/ic-lock.imageset/ic-lock.svg

<svg width="24" height="24" viewBox="0 0 24 24" fill="none" xmlns="http://www.w3.org/2000/svg">
<g id="ic-lock">
<path id="Icon" fill-rule="evenodd" clip-rule="evenodd" d="M7.5 7.5H7.8H16.2H16.5C16.5 5.01472 14.4853 3 12 3C9.51472 3 7.5 5.01472 7.5 7.5ZM6 7.5V7.52878C5.41168 7.56471 4.99429 7.64546 4.63803 7.82698C4.07354 8.1146 3.6146 8.57354 3.32698 9.13803C3 9.77976 3 10.6198 3 12.3V17.7C3 19.3802 3 20.2202 3.32698 20.862C3.6146 21.4265 4.07354 21.8854 4.63803 22.173C5.27976 22.5 6.11984 22.5 7.8 22.5H16.2C17.8802 22.5 18.7202 22.5 19.362 22.173C19.9265 21.8854 20.3854 21.4265 20.673 20.862C21 20.2202 21 19.3802 21 17.7V12.3C21 10.6198 21 9.77976 20.673 9.13803C20.3854 8.57354 19.9265 8.1146 19.362 7.82698C19.0057 7.64546 18.5883 7.56471 18 7.52878V7.5C18 4.18629 15.3137 1.5 12 1.5C8.68629 1.5 6 4.18629 6 7.5ZM5.95175 9.03589C6.37676 9.00117 6.93517 9 7.8 9H16.2C17.0648 9 17.6232 9.00117 18.0482 9.03589C18.4557 9.06918 18.6068 9.1257 18.681 9.16349C18.9632 9.3073 19.1927 9.53677 19.3365 9.81901C19.3743 9.89318 19.4308 10.0443 19.4641 10.4518C19.4988 10.8768 19.5 11.4352 19.5 12.3V17.7C19.5 18.5648 19.4988 19.1232 19.4641 19.5482C19.4308 19.9557 19.3743 20.1068 19.3365 20.181C19.1927 20.4632 18.9632 20.6927 18.681 20.8365C18.6068 20.8743 18.4557 20.9308 18.0482 20.9641C17.6232 20.9988 17.0648 21 16.2 21H7.8C6.93517 21 6.37676 20.9988 5.95175 20.9641C5.54426 20.9308 5.39318 20.8743 5.31901 20.8365C5.03677 20.6927 4.8073 20.4632 4.66349 20.181C4.6257 20.1068 4.56918 19.9557 4.53589 19.5482C4.50117 19.1232 4.5 18.5648 4.5 17.7V12.3C4.5 11.4352 4.50117 10.8768 4.53589 10.4518C4.56918 10.0443 4.6257 9.89318 4.66349 9.81901C4.8073 9.53677 5.03677 9.3073 5.31901 9.16349C5.39318 9.1257 5.54426 9.06918 5.95175 9.03589ZM13.5 13.5C13.5 14.0732 13.1785 14.5713 12.706 14.8238L13.3602 17.4409C13.4312 17.7249 13.2164 18 12.9237 18H11.0763C10.7836 18 10.5688 17.7249 10.6398 17.4409L11.294 14.8238C10.8215 14.5713 10.5 14.0732 10.5 13.5C10.5 12.6716 11.1716 12 12 12C12.8284 12 13.5 12.6716 13.5 13.5Z" fill="#0F0F0F"/>
</g>
</svg>

<svg xmlns="http://www.w3.org/2000/svg" width="24" height="24" viewBox="0 0 24 24">
  <g class="ic-lock">
    <path fill-rule="evenodd" d="M7.5 7.5h9a4.5 4.5 0 1 0-9 0ZM6 7.5v.029c-.588.036-1.006.116-1.362.298a3 3 0 0 0-1.311 1.311C3 9.78 3 10.62 3 12.3v5.4c0 1.68 0 2.52.327 3.162a3 3 0 0 0 1.311 1.311c.642.327 1.482.327 3.162.327h8.4c1.68 0 2.52 0 3.162-.327a3 3 0 0 0 1.311-1.311C21 20.22 21 19.38 21 17.7v-5.4c0-1.68 0-2.52-.327-3.162a3 3 0 0 0-1.311-1.311c-.356-.182-.774-.262-1.362-.298V7.5a6 6 0 0 0-12 0Zm-.048 1.536C6.377 9 6.935 9 7.8 9h8.4c.865 0 1.423.001 1.848.036.408.033.559.09.633.127a1.5 1.5 0 0 1 .655.656c.038.074.095.225.128.633.035.425.036.983.036 1.848v5.4c0 .865-.001 1.423-.036 1.848-.033.408-.09.559-.127.633a1.5 1.5 0 0 1-.656.655c-.074.038-.225.095-.633.128-.425.035-.983.036-1.848.036H7.8c-.865 0-1.423-.001-1.848-.036-.408-.033-.559-.09-.633-.127a1.5 1.5 0 0 1-.656-.656c-.037-.074-.094-.225-.127-.633-.035-.425-.036-.983-.036-1.848v-5.4c0-.865.001-1.423.036-1.848.033-.408.09-.559.127-.633a1.5 1.5 0 0 1 .656-.656c.074-.037.225-.094.633-.127ZM13.5 13.5a1.5 1.5 0 0 1-.794 1.324l.654 2.617a.45.45 0 0 1-.436.559h-1.848a.45.45 0 0 1-.436-.56l.654-2.616A1.5 1.5 0 1 1 13.5 13.5Z" class="Icon"/>
  </g>
</svg>
